SVG_Azure_Grouped/Application/Function App Properties.svg

<?xml version="1.0" encoding="UTF-8" standalone="no"?>
<!-- Generated by Microsoft Visio, SVG Export Function App Properties.svg Page-1 -->

<svg
   xmlns:dc="http://purl.org/dc/elements/1.1/"
   xmlns:cc="http://creativecommons.org/ns#"
   xmlns:rdf="http://www.w3.org/1999/02/22-rdf-syntax-ns#"
   xmlns:svg="http://www.w3.org/2000/svg"
   xmlns="http://www.w3.org/2000/svg"
   xmlns:sodipodi="http://sodipodi.sourceforge.net/DTD/sodipodi-0.dtd"
   xmlns:inkscape="http://www.inkscape.org/namespaces/inkscape"
   width="0.78743905in"
   height="0.78735709in"
   viewBox="0 0 56.695679 56.689998"
   xml:space="preserve"
   class="st6"
   version="1.1"
   id="svg59"
   sodipodi:docname="Function App Properties.svg"
   style="font-size:12px;overflow:visible;color-interpolation-filters:sRGB;fill:none;fill-rule:evenodd;stroke-linecap:square;stroke-miterlimit:3"
   inkscape:version="0.92.5 (2060ec1f9f, 2020-04-08)"><metadata
   id="metadata65"><rdf:RDF><cc:Work
       rdf:about=""><dc:format>image/svg+xml</dc:format><dc:type
         rdf:resource="http://purl.org/dc/dcmitype/StillImage" /></cc:Work></rdf:RDF></metadata><defs
   id="defs63" /><sodipodi:namedview
   pagecolor="#ffffff"
   bordercolor="#666666"
   borderopacity="1"
   objecttolerance="10"
   gridtolerance="10"
   guidetolerance="10"
   inkscape:pageopacity="0"
   inkscape:pageshadow="2"
   inkscape:window-width="640"
   inkscape:window-height="480"
   id="namedview61"
   showgrid="false"
   inkscape:zoom="1.7193066"
   inkscape:cx="37.795073"
   inkscape:cy="23.279613"
   inkscape:window-x="0"
   inkscape:window-y="0"
   inkscape:window-maximized="0"
   inkscape:current-layer="svg59" />
	<style
   type="text/css"
   id="style2">
	<![CDATA[
		.st1 {fill:#a0a1a2;stroke:none;stroke-linecap:butt;stroke-width:12.24}
		.st2 {fill:#1e1e1e;stroke:none;stroke-linecap:butt;stroke-width:12.24}
		.st3 {fill:#59b4d9;stroke:none;stroke-linecap:butt;stroke-width:12.24}
		.st4 {fill:#b8d432;stroke:none;stroke-linecap:butt;stroke-width:12.24}
		.st5 {fill:#ffffff;fill-opacity:0.2;stroke:none;stroke-linecap:butt;stroke-width:12.24}
		.st6 {fill:none;fill-rule:evenodd;font-size:12px;overflow:visible;stroke-linecap:square;stroke-miterlimit:3}
	]]>
	</style>

	<g
   id="g57"
   transform="translate(-12.240159,-12.2443)">
		<title
   id="title4">Page-1</title>
		<g
   id="group13900-1"
   transform="translate(12.24,-34.0157)">
			<title
   id="title6">Function App Properties.13900</title>
			<g
   id="group13901-2">
				<title
   id="title8">Sheet.13901</title>
				<g
   id="shape13902-3">
					<title
   id="title10">Sheet.13902</title>
					<path
   d="m 33.33,100.07 a 2.88067,2.87773 0 0 1 -2.88,2.88 H 2.88 A 2.88067,2.87773 0 0 1 0,100.07 V 49.13 a 2.88067,2.87773 0 0 1 2.88,-2.87 h 27.57 a 2.88067,2.87773 0 0 1 2.88,2.87 z"
   class="st1"
   id="path12"
   inkscape:connector-curvature="0"
   style="fill:#a0a1a2;stroke:none;stroke-width:12.23999977;stroke-linecap:butt" />
				</g>
				<g
   id="shape13903-5"
   transform="translate(4.89873,-22.4334)">
					<title
   id="title15">Sheet.13903</title>
					<path
   d="m 0,99.33 a 3.62184,3.61814 0 0 1 3.62,-3.62 h 16.59 a 3.6237019,3.62 0 0 1 0,7.24 H 3.62 A 3.6207,3.61701 0 0 1 0,99.33 Z"
   class="st2"
   id="path17"
   inkscape:connector-curvature="0"
   style="fill:#1e1e1e;stroke:none;stroke-width:12.23999977;stroke-linecap:butt" />
				</g>
				<g
   id="shape13904-7"
   transform="translate(6.24372,-23.6228)">
					<title
   id="title20">Sheet.13904</title>
					<ellipse
   cx="2.4312"
   cy="100.52"
   rx="2.4312"
   ry="2.42872"
   class="st3"
   id="ellipse22"
   style="fill:#59b4d9;stroke:none;stroke-width:12.23999977;stroke-linecap:butt" />
				</g>
				<g
   id="shape13905-9"
   transform="translate(4.89873,-33.1812)">
					<title
   id="title25">Sheet.13905</title>
					<path
   d="m 0,99.33 a 3.62184,3.61814 0 0 1 3.62,-3.62 h 16.59 a 3.6237019,3.62 0 0 1 0,7.24 H 3.62 A 3.62184,3.61814 0 0 1 0,99.33 Z"
   class="st2"
   id="path27"
   inkscape:connector-curvature="0"
   style="fill:#1e1e1e;stroke:none;stroke-width:12.23999977;stroke-linecap:butt" />
				</g>
				<g
   id="shape13906-11"
   transform="translate(6.24372,-34.3706)">
					<title
   id="title30">Sheet.13906</title>
					<ellipse
   cx="2.4312"
   cy="100.52"
   rx="2.4312"
   ry="2.42872"
   class="st3"
   id="ellipse32"
   style="fill:#59b4d9;stroke:none;stroke-width:12.23999977;stroke-linecap:butt" />
				</g>
				<g
   id="shape13907-13"
   transform="translate(4.89873,-43.9302)">
					<title
   id="title35">Sheet.13907</title>
					<path
   d="m 0,99.33 a 3.62184,3.61814 0 0 1 3.62,-3.62 h 16.59 a 3.6237019,3.62 0 0 1 0,7.24 H 3.62 A 3.6207,3.61701 0 0 1 0,99.33 Z"
   class="st2"
   id="path37"
   inkscape:connector-curvature="0"
   style="fill:#1e1e1e;stroke:none;stroke-width:12.23999977;stroke-linecap:butt" />
				</g>
				<g
   id="shape13908-15"
   transform="translate(6.24372,-45.1196)">
					<title
   id="title40">Sheet.13908</title>
					<ellipse
   cx="2.4312"
   cy="100.52"
   rx="2.4312"
   ry="2.42872"
   class="st3"
   id="ellipse42"
   style="fill:#59b4d9;stroke:none;stroke-width:12.23999977;stroke-linecap:butt" />
				</g>
				<g
   id="shape13909-17"
   transform="translate(11.7259)">
					<title
   id="title45">Sheet.13909</title>
					<path
   d="m 44.97,97.7 c 0,-2.89 -2.33,-5.24 -5.21,-5.24 -0.21,0 -0.43,0.01 -0.63,0.04 0.32,-1.18 0.49,-2.41 0.49,-3.7 0,-7.72 -6.21,-13.98 -13.88,-13.98 -6.12,0 -11.31,4 -13.16,9.54 A 9.31394,9.30444 -180 0 0 9.49,83.83 C 4.24,83.83 0,88.11 0,93.39 c 0,5.28 4.24,9.56 9.49,9.56 H 9.5 v 0 h 30.69 l -0.01,-0.03 c 2.68,-0.21 4.79,-2.46 4.79,-5.22 z"
   class="st4"
   id="path47"
   inkscape:connector-curvature="0"
   style="fill:#b8d432;stroke:none;stroke-width:12.23999977;stroke-linecap:butt" />
				</g>
				<g
   id="shape13910-19"
   transform="translate(11.7247)">
					<title
   id="title50">Sheet.13910</title>
					<path
   d="m 14.53,102.95 a 9.58748,9.5777 0 0 1 -2.6,-4.68 c -1.18,-5.14 2,-10.26 7.11,-11.42 a 9.31508,9.30557 0 0 1 3.14,-0.17 c 0.47,-4.81 3.4,-9.09 7.78,-11.2 a 13.753,13.739 -180 0 0 -4.22,-0.66 c -6.12,0 -11.31,4 -13.16,9.54 A 9.30827,9.29877 -180 0 0 9.49,83.83 C 4.24,83.83 0,88.11 0,93.39 c 0,5.28 4.24,9.56 9.49,9.56 l 0.01,-0.01 v 0.01 z"
   class="st5"
   id="path52"
   inkscape:connector-curvature="0"
   style="fill:#ffffff;fill-opacity:0.2;stroke:none;stroke-width:12.23999977;stroke-linecap:butt" />
				</g>
			</g>
		</g>
	</g>
</svg>

<?xml version="1.0" encoding="UTF-8" standalone="no"?>
<!DOCTYPE svg PUBLIC "-//W3C//DTD SVG 1.1//EN" "http://www.w3.org/Graphics/SVG/1.1/DTD/svg11.dtd">
<!-- Generated by Microsoft Visio, SVG Export Function App Properties.svg Page-1 -->
<svg xmlns="http://www.w3.org/2000/svg" xmlns:xlink="http://www.w3.org/1999/xlink" xmlns:ev="http://www.w3.org/2001/xml-events"
		width="1.1274in" height="1.42984in" viewBox="0 0 81.1729 102.949" xml:space="preserve" color-interpolation-filters="sRGB"
		class="st6">
	<style type="text/css">
	<![CDATA[
		.st1 {fill:#a0a1a2;stroke:none;stroke-linecap:butt;stroke-width:12.24}
		.st2 {fill:#1e1e1e;stroke:none;stroke-linecap:butt;stroke-width:12.24}
		.st3 {fill:#59b4d9;stroke:none;stroke-linecap:butt;stroke-width:12.24}
		.st4 {fill:#b8d432;stroke:none;stroke-linecap:butt;stroke-width:12.24}
		.st5 {fill:#ffffff;fill-opacity:0.2;stroke:none;stroke-linecap:butt;stroke-width:12.24}
		.st6 {fill:none;fill-rule:evenodd;font-size:12px;overflow:visible;stroke-linecap:square;stroke-miterlimit:3}
	]]>
	</style>

	<g>
		<title>Page-1</title>
		<g id="group13553-1" transform="translate(12.24,-34.0157)">
			<title>Function App Properties.13553</title>
			<g id="group13554-2">
				<title>Sheet.13554</title>
				<g id="shape13555-3">
					<title>Sheet.13555</title>
					<path d="M33.33 100.07 A2.88067 2.87773 0 0 1 30.45 102.95 L2.88 102.95 A2.88067 2.87773 0 0 1 0 100.07 L0 49.13
								 A2.88067 2.87773 0 0 1 2.88 46.26 L30.45 46.26 A2.88067 2.87773 0 0 1 33.33 49.13 L33.33 100.07
								 Z" class="st1"/>
				</g>
				<g id="shape13556-5" transform="translate(4.89873,-22.4334)">
					<title>Sheet.13556</title>
					<path d="M0 99.33 A3.62184 3.61814 0 0 1 3.62 95.71 L20.21 95.71 A3.62184 3.61814 0 0 1 20.21 102.95 L3.62 102.95
								 A3.6207 3.61701 0 0 1 0 99.33 Z" class="st2"/>
				</g>
				<g id="shape13557-7" transform="translate(6.24372,-23.6228)">
					<title>Sheet.13557</title>
					<ellipse cx="2.4312" cy="100.52" rx="2.4312" ry="2.42872" class="st3"/>
				</g>
				<g id="shape13558-9" transform="translate(4.89873,-33.1812)">
					<title>Sheet.13558</title>
					<path d="M0 99.33 A3.62184 3.61814 0 0 1 3.62 95.71 L20.21 95.71 A3.62184 3.61814 0 0 1 20.21 102.95 L3.62 102.95
								 A3.62184 3.61814 0 0 1 -0 99.33 Z" class="st2"/>
				</g>
				<g id="shape13559-11" transform="translate(6.24372,-34.3706)">
					<title>Sheet.13559</title>
					<ellipse cx="2.4312" cy="100.52" rx="2.4312" ry="2.42872" class="st3"/>
				</g>
				<g id="shape13560-13" transform="translate(4.89873,-43.9302)">
					<title>Sheet.13560</title>
					<path d="M0 99.33 A3.62184 3.61814 0 0 1 3.62 95.71 L20.21 95.71 A3.62184 3.61814 0 0 1 20.21 102.95 L3.62 102.95
								 A3.6207 3.61701 0 0 1 0 99.33 Z" class="st2"/>
				</g>
				<g id="shape13561-15" transform="translate(6.24372,-45.1196)">
					<title>Sheet.13561</title>
					<ellipse cx="2.4312" cy="100.52" rx="2.4312" ry="2.42872" class="st3"/>
				</g>
				<g id="shape13562-17" transform="translate(11.7259,0)">
					<title>Sheet.13562</title>
					<path d="M44.97 97.7 C44.97 94.81 42.64 92.46 39.76 92.46 C39.55 92.46 39.33 92.47 39.13 92.5 C39.45 91.32 39.62
								 90.09 39.62 88.8 C39.62 81.08 33.41 74.82 25.74 74.82 C19.62 74.82 14.43 78.82 12.58 84.36 A9.31394
								 9.30444 -180 0 0 9.49 83.83 C4.24 83.83 0 88.11 0 93.39 C0 98.67 4.24 102.95 9.49 102.95 L9.5 102.95
								 L9.5 102.95 L40.19 102.95 L40.18 102.92 C42.86 102.71 44.97 100.46 44.97 97.7 Z" class="st4"/>
				</g>
				<g id="shape13563-19" transform="translate(11.7247,0)">
					<title>Sheet.13563</title>
					<path d="M14.53 102.95 A9.58748 9.5777 0 0 1 11.93 98.27 C10.75 93.13 13.93 88.01 19.04 86.85 A9.31508 9.30557
								 0 0 1 22.18 86.68 C22.65 81.87 25.58 77.59 29.96 75.48 A13.753 13.739 -180 0 0 25.74 74.82 C19.62
								 74.82 14.43 78.82 12.58 84.36 A9.30827 9.29877 -180 0 0 9.49 83.83 C4.24 83.83 0 88.11 0 93.39 C0
								 98.67 4.24 102.95 9.49 102.95 L9.5 102.94 L9.5 102.95 L14.53 102.95 Z" class="st5"/>
				</g>
			</g>
		</g>
	</g>
</svg>
